X:1
T:Title
%%score ( 1 2 ) 3
L:1/8
Q:1/4=95
M:6/8
K:Bb
V:1 treble nm="Grand Piano, Soprano"
V:2 treble 
V:3 bass nm="Choir Pad, Cagayan de Oro, 76.76 D"
V:1
 F[=EG][_EA] [DB]2 [FA] | [FA] [EG]2- [EG]3/2 z/ [EG] | F2 F [DB]2 [DB] | [Fc]3- [Fc]3/2 z/ F | %4
w: By~A.~C.~Kolb,~1902 * * * *||||
 [Ec]2 [Ec] [Ec]2 [Fc] | [Fd] [DB]2- [DB]3/2 z/ [FA] | [=EG]2 [EG] [EA]2 [EB] | c6 | %8
w: ||||
 F[=EG][_EA] [DB]2 [FA] | [FA] [EG]2- [EG]3/2 z/ [EG]/[FA]/ | [GB]2 [GB] [Gc]2 [G_d] | %11
w: |||
 [^Fd]3- [Fd]3/2 z/ [=Fd] | [Fd]2 [Fd] [Fe]2 [Fd] | [Gc] [EG]2- [EG]3/2 z/ [EG] | %14
w: |||
 [DF]2 [FB] [EB]2 [EA] | [DB]6- | [DB]3 z3 |] %17
w: |||
V:2
 x6 | x6 | x6 | x6 | x6 | x6 | x6 | F3 E3 | x6 | x6 | x6 | x6 | x6 | x6 | x6 | x6 | x6 |] %17
V:3
 F,F,F, [B,,F,]2 [D,B,] | [E,B,] [E,B,]2- [E,B,]3/2 z/ [E,B,] | [D,B,]2 [D,B,] [G,B,]2 [G,B,] | %3
 [F,A,]3- [F,A,]3/2 z/ [F,A,] | [F,A,]2 [F,A,] [F,A,]2 [F,A,] | %5
 B, [B,,B,]2- [B,,B,]3/2 z/ [B,,B,] | [C,B,]2 [C,B,] [C,C]2 [C,B,] | [F,A,]6 | %8
 [F,A,][F,B,][F,C] [B,,B,]2 [D,B,] | [E,B,] [E,B,]2- [E,B,]3/2 z/ [E,B,] | %10
 [E,B,]2 [E,B,] [E,G,]2 [E,G,] | [D,A,]3- [D,A,]3/2 z/ [B,,B,] | [B,,B,]2 [B,,B,] [C,A,]2 [D,B,] | %13
 [E,B,] [E,B,]2- [E,B,]3/2 z/ [E,B,] | [F,B,]2 [F,D] [F,D]2 F, | [B,,F,]6- | [B,,F,]3 z3 |] %17

